X:1
T:Title
%%score { ( 1 3 ) | ( 2 4 ) }
L:1/8
M:3/4
K:F
V:1 treble nm="Grand Piano"
V:3 treble 
V:2 bass 
V:4 bass 
V:1
 z2 z[Q:1/4=100] A AA | B3 [EB] AE | F3 c cc | [Fd]3 [Fd] c=B |[M:3/8] [Ec]3 | AAA | %6
[M:3/4] c3 [CAc] [CGB][CFA] | [DFB]3 [B,DF] [F,DF][DG] | [CA][A,CF] [CEG]2 .[B,EG]2 | %9
[M:3/8] [A,CF]3 | ccc |[M:3/4] c3 A [GB][EG] | A3 A Bc | d3 [Af] [Ge][Fd] |[M:3/8] [Ec]3 | AAA | %16
[M:3/4] [Ac]3 [FA] [FB][Fc] | [Fd]3 f ed | cA [Fc]2 E2 |[M:3/8] F3 |] %20
V:2
 z2 z [F,CF] [F,CF][F,CF] | [G,CE]3 [C,G,] [C,F,C][C,B,C] | [F,A,C]3 [F,A,F] [F,A,F][F,A,F] | %3
 [D,A,]3 [D,A,][K:treble] [G,F][G,F] |[M:3/8][K:bass] G, z z | [F,CF][F,CF][F,CF] | %6
[M:3/4] [A,CF]3[K:bass] F, E,F, | B,,3 B,, B,,[B,,F,] | [C,F,]C, C,2 z C |[M:3/8] F,3 | CCC | %11
[M:3/4] C3 [F,CF][K:bass] [E,C][C,C] | [F,CF]3 [F,CF] [G,CE][K:treble][A,CF] | %13
 [B,F]3[K:bass] [F,C] [G,C][G,=B,] |[M:3/8] [C,C]3 | [F,CF][F,CF][F,CF] | %16
[M:3/4] [F,C]3 [_E,C] [D,B,][C,A,] | [B,,B,]3[K:treble] [B,DF] [B,CF][B,F] | %18
 [F,A,F][F,CF] [C,A,]2 [C,B,C]2 |[M:3/8] [F,A,C]3 |] %20
V:3
 x6 | x6 | x6 | x6 |[M:3/8] z C2 | x3 |[M:3/4] x6 | x6 | x6 |[M:3/8] x3 | x3 |[M:3/4] x6 | x6 | %13
 x6 |[M:3/8] x3 | x3 |[M:3/4] x6 | x6 | x6 |[M:3/8] x3 |] %20
V:4
 x6 | x6 | x6 | x4[K:treble] x2 |[M:3/8][K:bass] C,3 | x3 |[M:3/4] x3[K:bass] x3 | x6 | z2 z2 C,2 | %9
[M:3/8] x3 | x3 |[M:3/4] x4[K:bass] x2 | x5[K:treble] x | x3[K:bass] x3 |[M:3/8] x3 | x3 | %16
[M:3/4] x6 | x3[K:treble] x3 | x6 |[M:3/8] x3 |] %20

